src/assets/golfd.svg

<svg width="80" height="80" viewBox="0 0 80 80" fill="none" xmlns="http://www.w3.org/2000/svg">
<path fill-rule="evenodd" clip-rule="evenodd" d="M36.9528 1.16801C25.7823 2.42393 16.3979 9.99435 12.8948 20.5761C11.3834 25.1413 11.0336 29.6415 11.8259 34.3262C12.1125 36.0208 12.7197 38.3544 13.1288 39.3335C13.4048 39.9942 13.4033 40 12.9537 40C11.9486 40 10.8488 40.9162 10.6625 41.9087C10.4276 43.1614 10.6908 43.5781 12.993 45.598C14.4202 46.8501 15.7654 48.6596 16.6865 50.5662C17.3362 51.9113 17.9968 53.7109 17.8408 53.7109C17.8118 53.7109 17.4212 53.4611 16.9729 53.1556C13.9525 51.0981 9.56912 50.1098 5.21087 50.5038C2.40622 50.7573 1.84392 50.9773 1.3063 52.0313C0.947837 52.7338 0.916911 53.3744 1.2085 54.0586C1.48089 54.6979 1.87058 55.0223 3.43713 55.9133C7.03245 57.9587 10.0479 61.1308 11.8756 64.7901C12.178 65.3955 12.4254 65.9242 12.4254 65.9648C12.4254 66.0055 10.2146 66.0587 7.51233 66.0829C2.60259 66.1269 2.59894 66.1272 2.0863 66.4927C1.07245 67.2159 1.00679 67.5788 1.00298 72.4774C1.00085 75.203 1.06057 77.0087 1.16173 77.2762C1.38217 77.8598 2.03953 78.5365 2.63245 78.7902C3.04424 78.9665 9.02297 79 39.9849 79C65.6592 79 76.9771 78.9508 77.2759 78.8379C77.8688 78.6139 78.5137 77.9707 78.8604 77.2575C79.1271 76.7087 79.152 76.2812 79.152 72.2429C79.152 69.8147 79.1066 67.8736 79.0511 67.929C78.9957 67.9845 78.8322 67.7663 78.6879 67.4442C78.5438 67.122 78.195 66.6939 77.913 66.4927C77.4003 66.1272 77.3967 66.1269 72.4869 66.0829C69.7847 66.0587 67.5739 66.0055 67.5739 65.9648C67.5739 65.9242 67.8213 65.3955 68.1237 64.7901C69.9513 61.1308 72.9668 57.9587 76.5621 55.9133C77.2743 55.5083 78.0176 55.0355 78.2137 54.8628C78.7154 54.4211 79.1541 53.4469 79.1399 52.8063C79.1334 52.5079 79.091 52.3561 79.0461 52.469C78.9966 52.5935 78.856 52.4327 78.6901 52.0619C78.2099 50.9894 77.5965 50.749 74.7186 50.5047C70.3221 50.1314 66.0407 51.1022 63.0264 53.1556C62.578 53.4611 62.1874 53.7109 62.1585 53.7109C62.0025 53.7109 62.6631 51.9113 63.3128 50.5662C64.2322 48.6631 65.5771 46.8527 67.0035 45.598C68.9809 43.8585 69.2192 43.5927 69.3301 43.0013C69.6186 41.4632 68.5048 40 67.0455 40C66.596 40 66.5944 39.9942 66.8705 39.3335C67.2804 38.3524 67.8871 36.0194 68.1724 34.3262C68.962 29.6414 68.6116 25.1283 67.1045 20.5761C63.578 9.92396 54.1146 2.33953 42.8724 1.15536C41.2065 0.979862 38.5755 0.985499 36.9528 1.16801ZM37.1051 3.76059C29.7445 4.60641 23.128 8.52499 18.7446 14.6347C17.5784 16.2602 15.9759 19.4205 15.3458 21.3379C13.8555 25.8722 13.6175 30.6334 14.6495 35.266C15.0143 36.9036 16.0785 40.0577 16.3617 40.3409C16.4298 40.409 17.0973 40.6285 17.845 40.8287C23.7513 42.4094 28.4994 45.9514 31.7246 51.1826L32.3788 52.2435L32.5607 51.7215C32.9362 50.6445 34.6642 47.337 35.5806 45.9414C36.6412 44.3262 39.2711 41.5974 40.175 41.1744C40.8572 40.8551 41.8495 40.8386 42.4266 41.1371C43.0398 41.4542 43.6317 42.2111 43.7148 42.7847C44.1291 45.6406 44.3369 46.6499 44.7884 47.9995C45.3481 49.672 45.8938 50.8333 46.7515 52.1765L47.2795 53.0034L47.6966 52.1765C48.9693 49.6535 51.5455 46.6694 54.1185 44.7373C56.5941 42.8787 59.1622 41.6294 62.1542 40.8287C62.9019 40.6285 63.5695 40.409 63.6376 40.3409C63.9208 40.0577 64.9849 36.9036 65.3498 35.266C67.354 26.2691 64.4746 16.914 57.7801 10.6729C52.1561 5.42967 44.591 2.90046 37.1051 3.76059ZM42.2668 7.97625C38.6648 9.858 39.9765 15.3253 44.0285 15.3188C46.273 15.3151 47.9101 13.6725 47.9182 11.416C47.92 10.9026 47.8188 10.2367 47.6933 9.9363C46.8272 7.86351 44.2586 6.93574 42.2668 7.97625ZM32.611 8.91194C31.4149 9.20307 30.2487 10.2372 29.8732 11.3394C28.9763 13.9714 30.7799 16.5331 33.5332 16.5375C35.2764 16.5404 36.7194 15.4682 37.2047 13.8095C37.6528 12.2783 37.2174 10.8041 36.0125 9.77269C35.0515 8.95003 33.7779 8.62782 32.611 8.91194ZM43.1871 10.5859C42.6908 11.0822 42.6341 11.4709 42.9647 12.1101C43.3474 12.85 44.3413 12.973 44.9577 12.3564C45.4819 11.8324 45.4546 11.1541 44.8864 10.5859C44.3085 10.0081 43.765 10.0081 43.1871 10.5859ZM32.6932 11.7868C31.6195 12.8605 32.6914 14.4056 34.1275 13.8546C34.4228 13.7412 34.8199 13.0184 34.8199 12.5941C34.8199 12.1432 34.2023 11.5243 33.6454 11.4175C33.2365 11.3391 33.0805 11.3996 32.6932 11.7868ZM23.1656 15.5072C21.8131 15.9894 20.7518 17.2922 20.5575 18.7087C20.2317 21.0862 22.5263 23.3648 24.8943 23.0153C25.8208 22.8787 26.9529 22.2562 27.4424 21.6144C28.7129 19.9486 28.4314 17.3754 26.8461 16.1664C25.8375 15.3971 24.265 15.1154 23.1656 15.5072ZM23.7543 18.0884C23.3958 18.2619 23.0895 18.8202 23.0895 19.3001C23.0895 19.7081 23.8928 20.5 24.3066 20.5C25.4996 20.5 26.1277 19.1065 25.3053 18.2841C24.9088 17.8874 24.3221 17.8134 23.7543 18.0884ZM38.9323 18.0433C37.7836 18.4202 36.86 19.2511 36.4063 20.3152C36.1054 21.0213 36.0963 22.5683 36.3889 23.2687C36.6993 24.0113 37.4988 24.8773 38.2332 25.2662C38.7129 25.5202 39.1209 25.5965 39.9996 25.5965C41.3351 25.5965 42.0931 25.2738 42.8896 24.3668C43.582 23.5779 43.846 22.8642 43.8408 21.7949C43.8334 20.294 43.0541 18.9928 41.7705 18.3379C41.0994 17.9956 39.5636 17.8362 38.9323 18.0433ZM39.155 20.8479C38.294 21.5885 38.8596 23.0898 39.9996 23.0898C40.2417 23.0898 40.6218 22.9332 40.8442 22.7419C41.7053 22.0013 41.1396 20.5 39.9996 20.5C39.7576 20.5 39.3775 20.6566 39.155 20.8479ZM29.5088 24.6695C28.6771 24.9705 27.8036 25.8137 27.392 26.713C27.0719 27.4121 27.0235 27.7025 27.0844 28.5548C27.1654 29.6881 27.4258 30.2972 28.1299 31.0015C29.7027 32.5741 32.0458 32.5816 33.6085 31.019C35.5957 29.0317 34.9446 25.7819 32.341 24.6941C31.6836 24.4195 30.2346 24.4068 29.5088 24.6695ZM19.6361 25.8186C17.6424 26.3233 16.2683 28.4395 16.6956 30.3469C16.9185 31.3409 17.197 31.8088 17.9718 32.4908C19.4763 33.8151 21.5761 33.7907 23.088 32.4314C24.628 31.0469 24.7808 28.8315 23.4562 27.0948C22.7226 26.1332 20.8564 25.5096 19.6361 25.8186ZM30.0143 27.4248C28.8606 28.5783 30.582 30.3376 31.7926 29.2421C32.1902 28.8822 32.2871 28.2122 32.0168 27.6897C31.6248 26.9315 30.638 26.8009 30.0143 27.4248ZM19.9216 28.4292C19.4521 28.6175 19.0848 29.5056 19.2722 29.9988C19.3502 30.2038 19.5706 30.4814 19.7621 30.6154C20.8275 31.3616 22.1498 30.2986 21.6486 29.0992C21.3485 28.381 20.684 28.1231 19.9216 28.4292ZM64.5949 42.8931C60.5846 43.577 56.7879 45.5005 53.8376 48.3429C51.9437 50.1675 50.6818 51.8959 49.4934 54.293C48.9169 55.4557 48.3366 56.4211 48.1343 56.5535C47.562 56.9286 46.9482 56.6883 46.1948 55.7939C43.6707 52.7971 42.0225 48.9968 41.2612 44.4179L41.1218 43.58L39.8156 44.8823C39.0973 45.5986 38.1194 46.7829 37.6429 47.514C36.5551 49.1828 35.0319 52.3602 34.2704 54.5488C33.6333 56.3798 33.2488 56.9101 32.5586 56.9101C31.8916 56.9101 31.5053 56.502 30.9388 55.1993C28.6057 49.8336 23.8943 45.5072 18.3668 43.6541C17.12 43.2361 14.9408 42.7498 14.2951 42.7455C13.8069 42.7422 13.8117 42.7499 15.0646 43.9528C18.1084 46.8749 20.1543 50.9215 20.9545 55.6029C21.3707 58.0376 21.359 58.6545 20.8873 59.126C20.193 59.8205 19.4143 59.5921 18.6471 58.4694C16.5218 55.3583 13.3291 53.5698 9.06365 53.1005C7.66391 52.9464 4.64065 53.0158 4.30671 53.2097C4.24044 53.2482 4.8131 53.6681 5.57939 54.1428C9.78088 56.7454 13.2895 60.9389 14.9373 65.3271L15.209 66.0508H39.9996H64.7902L65.062 65.3271C66.7437 60.8484 70.0872 56.8699 74.4948 54.1027C75.2178 53.6488 75.7559 53.2464 75.6907 53.2085C75.3582 53.0156 72.3314 52.9468 70.9356 53.1005C66.6702 53.5698 63.4775 55.3583 61.3521 58.4694C60.5849 59.5921 59.8063 59.8205 59.1119 59.126C58.636 58.65 58.6232 57.9084 59.0499 55.5276C59.8933 50.8211 61.9131 46.8536 64.9494 43.9385C65.6511 43.265 66.2029 42.6954 66.1759 42.6728C66.1488 42.6503 65.4374 42.7493 64.5949 42.8931ZM1.04107 53.1015C1.04107 53.4786 1.07078 53.6329 1.10719 53.4443C1.14345 53.2557 1.14345 52.9474 1.10719 52.7588C1.07078 52.5702 1.04107 52.7245 1.04107 53.1015ZM1.06712 72.5254C1.06712 75.039 1.08799 76.0887 1.11359 74.858C1.13903 73.6273 1.13918 71.5706 1.11359 70.2877C1.08815 69.0047 1.06727 70.0117 1.06712 72.5254ZM3.58948 72.5254V76.4101H39.9996H76.4098V72.5254V68.6406H39.9996H3.58948V72.5254Z" fill="white"/>
</svg>

<svg xmlns="http://www.w3.org/2000/svg" width="80" height="80" fill="none" viewBox="0 0 80 80"><path fill="#fff" fill-rule="evenodd" d="M36.953 1.168c-11.17 1.256-20.555 8.826-24.058 19.408-1.512 4.565-1.861 9.066-1.07 13.75.288 1.695.895 4.028 1.304 5.008.276.66.274.666-.175.666-1.005 0-2.105.916-2.292 1.909-.234 1.252.029 1.67 2.331 3.689 1.427 1.252 2.772 3.062 3.693 4.968.65 1.345 1.31 3.145 1.155 3.145-.03 0-.42-.25-.868-.555-3.02-2.058-7.404-3.046-11.762-2.652-2.805.253-3.367.473-3.905 1.527-.358.703-.39 1.343-.098 2.028.273.639.663.963 2.23 1.854 3.594 2.046 6.61 5.218 8.438 8.877.302.605.55 1.134.55 1.175 0 .04-2.211.094-4.914.118-4.91.044-4.913.044-5.426.41-1.014.723-1.08 1.086-1.083 5.984-.002 2.726.058 4.532.159 4.8.22.583.878 1.26 1.47 1.513.412.176 6.391.21 37.353.21 25.674 0 36.992-.05 37.29-.162.594-.224 1.239-.867 1.585-1.58.267-.55.292-.977.292-5.015 0-2.428-.045-4.37-.1-4.314-.056.055-.22-.163-.364-.485a2.8 2.8 0 0 0-.775-.951c-.513-.366-.516-.366-5.426-.41-2.702-.024-4.913-.078-4.913-.118s.247-.57.55-1.175c1.827-3.66 4.843-6.831 8.438-8.877.712-.405 1.456-.877 1.652-1.05.501-.442.94-1.416.926-2.057-.007-.298-.049-.45-.094-.337-.05.124-.19-.036-.356-.407-.48-1.073-1.093-1.313-3.971-1.557-4.397-.374-8.678.597-11.693 2.65-.448.306-.839.556-.868.556-.156 0 .505-1.8 1.155-3.145.92-1.903 2.264-3.713 3.69-4.968 1.978-1.74 2.216-2.005 2.327-2.597.289-1.538-.825-3.001-2.284-3.001-.45 0-.452-.006-.175-.666.41-.982 1.016-3.315 1.301-5.008.79-4.685.44-9.198-1.067-13.75C63.578 9.924 54.115 2.34 42.872 1.156c-1.666-.176-4.297-.17-5.92.012m.152 2.593c-7.36.845-13.977 4.764-18.36 10.874-1.167 1.625-2.77 4.786-3.4 6.703a26.16 26.16 0 0 0-.696 13.928c.365 1.638 1.43 4.792 1.713 5.075.068.068.735.288 1.483.488 5.906 1.58 10.654 5.122 13.88 10.354l.654 1.06.182-.522c.375-1.076 2.103-4.384 3.02-5.78 1.06-1.615 3.69-4.344 4.594-4.767.682-.319 1.675-.335 2.252-.037.613.317 1.205 1.074 1.288 1.648.414 2.856.622 3.865 1.073 5.215.56 1.672 1.106 2.833 1.964 4.176l.527.827.418-.827c1.272-2.523 3.848-5.507 6.421-7.439 2.476-1.858 5.044-3.108 8.036-3.908.748-.2 1.415-.42 1.484-.488.283-.283 1.347-3.437 1.712-5.075 2.004-8.997-.875-18.352-7.57-24.593C52.156 5.43 44.591 2.9 37.105 3.76m5.162 4.215c-3.602 1.882-2.29 7.35 1.761 7.343 2.245-.004 3.882-1.647 3.89-3.903.002-.513-.1-1.18-.225-1.48-.866-2.072-3.434-3-5.426-1.96m-9.656.936c-1.196.291-2.362 1.325-2.738 2.427-.897 2.632.907 5.194 3.66 5.199 1.743.002 3.186-1.07 3.672-2.729.448-1.53.012-3.005-1.192-4.036-.962-.823-2.235-1.145-3.402-.861m10.576 1.674c-.496.496-.553.885-.222 1.524.382.74 1.376.863 1.993.246.524-.524.497-1.202-.072-1.77-.578-.578-1.121-.578-1.699 0m-10.494 1.2c-1.073 1.075-.002 2.62 1.435 2.069.295-.114.692-.837.692-1.26 0-.452-.618-1.07-1.175-1.178-.409-.078-.565-.017-.952.37m-9.527 3.721c-1.353.482-2.414 1.785-2.608 3.202-.326 2.377 1.968 4.656 4.336 4.306.927-.136 2.059-.759 2.548-1.4 1.27-1.666.99-4.24-.596-5.449-1.009-.769-2.581-1.05-3.68-.659m.588 2.581c-.358.174-.665.732-.665 1.212 0 .408.804 1.2 1.218 1.2 1.193 0 1.82-1.393.998-2.216-.396-.397-.983-.47-1.55-.196m15.178-.045c-1.148.377-2.072 1.208-2.526 2.272-.3.706-.31 2.253-.017 2.954.31.742 1.11 1.608 1.844 1.997.48.254.888.33 1.767.33 1.335 0 2.093-.322 2.89-1.23.692-.788.956-1.502.95-2.571-.007-1.501-.786-2.802-2.07-3.457-.67-.342-2.206-.502-2.838-.295m.223 2.805c-.861.74-.295 2.242.845 2.242.242 0 .622-.157.844-.348.861-.74.296-2.242-.844-2.242-.242 0-.623.157-.845.348M29.51 24.67c-.832.3-1.705 1.144-2.117 2.043-.32.7-.369.99-.308 1.842.081 1.133.342 1.742 1.046 2.447 1.573 1.572 3.916 1.58 5.479.017 1.987-1.987 1.336-5.237-1.268-6.325-.657-.274-2.106-.287-2.832-.024m-9.873 1.149c-1.994.504-3.368 2.62-2.94 4.528.223.994.501 1.462 1.276 2.144 1.504 1.324 3.604 1.3 5.116-.06 1.54-1.384 1.693-3.6.368-5.336-.733-.962-2.6-1.585-3.82-1.276m10.378 1.606c-1.153 1.153.568 2.913 1.779 1.817.397-.36.494-1.03.224-1.552-.392-.759-1.379-.89-2.003-.265m-10.092 1.004c-.47.189-.837 1.077-.65 1.57.078.205.299.482.49.616A1.25 1.25 0 0 0 21.65 29.1c-.3-.718-.965-.976-1.727-.67m44.673 14.464a20.6 20.6 0 0 0-10.757 5.45c-1.894 1.824-3.156 3.553-4.345 5.95-.576 1.163-1.156 2.128-1.359 2.26-.572.376-1.186.135-1.94-.76-2.523-2.996-4.172-6.796-4.933-11.375l-.14-.838-1.305 1.302c-.719.717-1.697 1.9-2.173 2.632-1.088 1.669-2.611 4.846-3.373 7.035-.637 1.83-1.021 2.361-1.711 2.361-.667 0-1.054-.408-1.62-1.71-2.333-5.366-7.045-9.693-12.572-11.546-1.247-.418-3.426-.904-4.072-.909-.488-.003-.483.005.77 1.208 3.043 2.922 5.09 6.968 5.89 11.65.416 2.435.404 3.051-.068 3.523-.694.695-1.473.466-2.24-.657q-3.186-4.665-9.583-5.369c-1.4-.154-4.423-.084-4.757.11-.067.038.506.458 1.272.933 4.202 2.602 7.71 6.796 9.358 11.184l.272.724h49.58l.272-.724c1.682-4.479 5.025-8.457 9.433-11.224.723-.454 1.26-.857 1.196-.895-.333-.192-3.36-.261-4.755-.108q-6.398.704-9.584 5.37c-.767 1.122-1.546 1.35-2.24.656-.476-.476-.489-1.218-.062-3.598.843-4.707 2.863-8.674 5.9-11.59.701-.673 1.253-1.243 1.226-1.265-.027-.023-.739.076-1.581.22M1.04 53.102c0 .377.03.53.066.342a2.2 2.2 0 0 0 0-.685c-.036-.189-.066-.035-.066.343m.026 19.423c0 2.514.021 3.564.047 2.333s.025-3.287 0-4.57-.047-.276-.047 2.237m2.522 0v3.885h72.82v-7.769H3.59z" clip-rule="evenodd"/></svg>
